X:6
T:Enfants de la terre
C:M. Wackenheim
M:C
L:1/8
K:Em
"Mim"EB, EF"Sim"G2F2|"Mim"EB, ED"Sim"B,4|"Sol"B2B2"Re"A2BA|"Mim"G2FE"Sim"F4|"Mim"EB, EF"Re"G2F2|\
"Sol"GD "Do"GA"Sol"B4|"Lam"c2"Sol"B2"Do"A2"Re"BA |
"Mim"G2"Sim"FF"Mim"E2z||E|A2BcA2F2|B4z2zE|A2BcA2FF|B4z2zB,|"Mim"E2EEE2B,E |
"Si"F4z2zB,|"Si"F2FFF2GA|"Mim"G2G2z2zD|"Sol"G2GGG2DG|"Re"A2A2z2zD|"Re"A2AAA2Bc|"Si"B2B2z2z2 |]
